X: 1090
T: Hâlâ Acıyor...
C: Şerif İçli
O: Turkey
F: http://compmusic.upf.edu/node/140
N: ussak--sarki--turkaksagi--hala_aciyor--serif_icli
N: makam= ussak
N: form= sarki
N: usul= turkaksagi = 5/8
M: 5/8
L: 1/16
K: C _2/4B   
Q: 1/4=120
%%MIDI tuningsystem comma53
G3A A4 Gd | cB BAA4z2  | ABAG ABcd ef | 
w:  Hâ *  lâ   |  a *  cı *  yor   |  göz  | 
ed dcd4z2  | dcBd c4 df | ed cBA6  | A2g2 f2e2 ed | 
w:  le *  ri *  nin   |  yak  |   |  tı ğı  yer  | 
d4c2 B2A2  | G3A A4 Gd | cB BAA4z2  | ABAG ABcd ef | 
w:  ler   SAZ  |  Hâ *  lâ   |  a *  cı *  yor   |  göz  | 
ed dcd4z2  | dcBd c4 df | ed cBA6  | A2g2 f2e2 ed | 
w:  le *  ri *  nin   |  yak  |   |  tı ğı  yer  | 
d4GA Bcd2  | dced d4 c/B/A/B/ | c2 d2de cBAG  | 
w:  ler   SAZ  |  İn *  *  *  cit  |  me  ga ri  | 
A3B cd_7/8e^f dc | cB BAA4z2  | gg/^f/ga g=fed cB | 
w:  bim   |  be *  ni  *  bir   |  söz  | 
ff/e/ fged cBAG  | dfed c2B2 BA | A4GA Bcd2  | 
w:   |  le  *  se *  vin  |  dir   SAZ  | 
dced d4 c/B/A/B/ | c2 d2de cBAG  | A3B cd_7/8e^f dc | 
w:  İn *  *  *  cit  |  me  ga ri  |  bim   | 
cB BAA4z2  | gg/^f/ga g=fed cB | ff/e/ fged cBAG  | 
w:  be *  ni  *  bir   |  söz  |   | 
dfed c2B2 BA | A4de ^fga2  | g3a a4 a_b | \
w:  le  *  se *  vin  |  dir   SAZ  |  Aş *  kın   | 
ag ^fga6  | 
w:  ba *  na  *  rû  | 
g3a _bc'_2/4ba ga | ^f_7/8e edd6  | dcBd c4 df | \
w:  yâ  |  sı *  nı  *  gös  |  ter  | 
ed cBA6  | 
w:   | 
A2g2 f2e2 ed | d4de ^fga2  | g3a a4 a_b | \
w:  di  o  göz  |  ler   SAZ  |  Aş *  kın   | 
ag ^fga6  | 
w:  ba *  na  *  rû  | 
g3a _bc'_2/4ba ga | ^f_7/8e edd6  | dcBd c4 df | \
w:  yâ  |  sı *  nı  *  gös  |  ter  | 
ed cBA6  | 
w:   | 
A2g2 f2e2 ed | d4GA Bcd2  | dced d4 c/B/A/B/ | 
w:  di  o  göz  |  ler   SAZ  |  İn *  *  *  cit  | 
c2 d2de cBAG  | A3B cd_7/8e^f dc | cB BAA4z2  | 
w:  me  ga ri  |  bim   |  be *  ni  *  bir   | 
gg/^f/ga g=fed cB | ff/e/ fged cBAG  | 
w:  söz  |   | 
dfed c2B2 BA | A4GA Bcd2  | dced d4 c/B/A/B/ | 
w:  le  *  se *  vin  |  dir   SAZ  |  İn *  *  *  cit  | 
c2 d2de cBAG  | A3B cd_7/8e^f dc | cB BAA4z2  | 
w:  me  ga ri  |  bim   |  be *  ni  *  bir   | 
gg/^f/ga g=fed cB | ff/e/ fged cBAG  | 
w:  söz  |   | 
dfed c2B2 BA | A4|
w:  le  *  se *  vin  |  dir    | 


